X:205 
T:Those Happy Days Quadrille (fig.5) 
B:RC3.194e
F:file ID roche.3/205thd5
Z:bill@capeirish.com
N:Played A-B-A-C-A
Q:120
L:1/8
M:2/4
R:polka
K:D
P:Part A
A>F FE/D/|F>E F>d|A>F FE/D/|E>D EF|
"5"A>F ED|d>e fe|d/c/B/A/ dF|E>D EF||"final" EDD2|]
"9"AB/c/ df|e>d ef|AB/c/ dF|E>D EF|
"13"AB/c/ df|e/d/g/f/ ed/e/|f>e dF|EDE||
%
M:6/8
R:jig
Q:160
P:Part B: 1st & 3rd
A/G/|"17"F2A d2f|e2c A2G|F2A d2d|d3 z2g|
"21"f2e f2g|a2f d2f|e2d c2B|A3z2 g|
"25"f2e f2g|a2f d2f|e2c A2F|G3z2A|
"29"B3 Bcd|e2c A2G|F2A d3|d3-d2g|
"33"f2e f2g|a2f d2f|e2c A2F|G3z2A|
"37"B3 g2f|e2c A2G|F2A d3|d3-d3||%back to A
%
P:Part C: 2nd & 4th
"41"A2A F2A|d2e fgf|e2A A2F|G3-G2 F/G/|
"45"A2A F2A|d2e fgf|e2A A2c|d3-d2 a/g/|
"49"f3 fef|g2e ede|f2d A2F|G3-G2a|
"53"f3 f2A|d2e fgf|e2A A2c|d3-d2 a/g/|
"57"f3 fef|g2e ede|fdB AGF|G3-G2F/G/|
"61"ABA AFA|d2e fgf|ecA ABc|d3-d3!D.C.!||

